!!!COM: Bach, Johann Sebastian
!!!OTL: Sinfonia No. 3; in D major; BWV 789
!! Three-part sinfonia
!! Bach-Gesellschaft edition, pp.22-23
!! Performance duration: 1:10; performance tempo: 85.7 quarter-notes per minute.
!! (Andras Schiff, piano, "Two-Part Inventions BWV 772a-786; Three-part
!! Inventions BWV 787-801" Decca 411 974-2)
**kern	**kern	**kern
*staff2	*staff1	*staff1
*M4/4	*M4/4	*M4/4
*MM85.7	*MM85.7	*MM85.7
*D:	*D:	*D:
=1	=1	=1
4d	1r	8r
.	.	16ff#
.	.	16gg
8r	.	8aa
8F#	.	8ccn
4G	.	8b
.	.	16ee
.	.	16ff#
8r	.	8gg
8E	.	8b
=2	=2	=2
4F#	1r	8a
.	.	16dd
.	.	16ee
8r	.	8ff#
8D	.	8a
8B	.	16g
.	.	16ff#
8G	.	16ee
.	.	16dd
8A	.	16cc#
.	.	16bb
8AA	.	16aa
.	.	16gg
=3	=3	=3
8D	2r	16ff#
.	.	16ee
8d	.	16dd
.	.	16ee
8c#	.	16ff#
.	.	16ee
8B	.	16ff#
.	.	16gg#
16A	8r	4aa
16G#	.	.
16A	16cc#	.
16B	16dd	.
16c#	8ee	[4ee
16d	.	.
16c#	8gn	.
16B	.	.
=4	=4	=4
16A#	8f#	4ee]
16F#	.	.
16G#	16b	.
16A#	16cc#	.
16B	8dd	2dd
16c#	.	.
16B	8f#	.
16An	.	.
16G#	8e	.
16E	.	.
16F#	16a	.
16G#	16b	.
16A	8cc#	[4cc#
16B	.	.
16A	8e	.
16Gn	.	.
=5	=5	=5
8F#	16d	16cc#]
.	16cc#	16ee
8D	16b	16dd
.	16a	16cc#
8E	16g#	8b
.	16ff#	.
8EE	16ee	8gg#
.	16dd	.
16AA	16cc#	[2aa
16BB	16b	.
16C#	16a	.
16D	16b	.
16E	16cc#	.
16F#	16a	.
16Gn	16b	.
16E	16cc#	.
=6	=6	=6
16F#	4dd	16aa]
16E	.	16cc#
16F#	.	16dd
16G	.	16ee
8A	2a	16ff#
.	.	16gg
8Cn	.	16ff#
.	.	16ee
8BB	.	16dd#
.	.	16b
16E	.	16cc#
16F#	.	16dd#
8G	[4g	16ee
.	.	16ff#
8BB	.	16ee
.	.	16ddn
=7	=7	=7
8AA	4g]	16cc#
.	.	16a
16D	.	16b
16E	.	16cc#
8F#	[4f#	16dd
.	.	16ee
8AA	.	16dd
.	.	16cc#
16GG	16f#]	4b
16F#	16a	.
16E	16g	.
16D	16f#	.
16C#	16e	[4ee
16B	16dd	.
16A	16cc#	.
16G	16b	.
=8	=8	=8
16F#	16a	8ee]
16E	16g	.
16D	16f#	8a
16E	16g	.
16F#	16a	8.dd
16E	16g#	.
16F#	16a	.
16G#	16b	16ee
8A	[2e	16cc#
.	.	16b
8E	.	16a
.	.	16b
8.A	.	16cc#
.	.	16b
.	.	16cc#
16B	.	16dd#
=9	=9	=9
16Gn	8e]	8ee
16F#	.	.
16E	16g	8b
16F#	16a	.
16G	16b	8.ee
16F#	16a	.
16G	16b	.
16A	16cc#	16ff#
8B	4f#	16dd
.	.	16cc#
8A	.	16b
.	.	16cc#
4G	[4B	16dd
.	.	16cc#
.	.	16dd
.	.	16ee
=10	=10	=10
[2F#	16B]	16ff#
.	16A#	16ee
.	16B	16dd
.	16c#	16ee
.	16d	8ff#
.	16e	.
.	16d	8an
.	16c#	.
4F#]	16B	8g#
.	16G#	.
.	16A#	16cc#
.	16B	16dd
[4E	16c#	8ee
.	16d	.
.	16c#	8gn
.	16B	.
=11	=11	=11
4E]	16A#	8f#
.	16F#	.
.	16G#	16b
.	16A#	16cc#
16r	[4B	8dd
16D	.	.
16E	.	8f#
16F#	.	.
4Gn	16B]	16e
.	16B	16dd
.	16c#	16cc#
.	16d	16b
4F#	8e	16a#
.	.	16gg
.	8A#	16ff#
.	.	16ee
=12	=12	=12
[2BB	8B	16dd
.	.	16cc#
.	8An	16b
.	.	16cc#
.	8G#	16dd
.	.	16b
.	8F#	16cc#
.	.	16dd
4BB]	[4G#	16e#
.	.	16g#
.	.	16a
.	.	16b
[4AA	16G#]	[4cc#
.	16g#	.
.	16f#	.
.	16en	.
=13	=13	=13
4AA_	[4d#	16cc#]
.	.	16f#
.	.	16g#
.	.	16a
16AA]	16d#]	[4b
16A	16f#	.
16G#	16e	.
16F#	16dn	.
16E#	[4c#	16b]
16C#	.	16e#
16D#	.	16f#
16E#	.	16g#
8F#	16c#]	[4a
.	16en	.
16BB	16dn	.
16C#	16c#	.
=14	=14	=14
8D	[4B	16a]
.	.	16a
8BB	.	16g#
.	.	16f#
8C#	16B]	4e#
.	16d	.
8CC#	16c#	.
.	16B	.
4FF#	8A	8f#
.	8r	16ff#
.	.	16ggn
8r	4r	8aa
16F#	.	8ccn
16G	.	.
=15	=15	=15
16A	8r	4b
16G	.	.
16A	16f#	.
16B	16g	.
16cn	8a	[4ff#
16F#	.	.
16G	8cn	.
16A	.	.
8D#	[2B	16ff#]
.	.	16gg
16F#	.	16ff#
16G	.	16ee
8A	.	16dd#
.	.	16cccn
8D#	.	16bb
.	.	16aa
=16	=16	=16
4E	8B]	16gg
.	.	16aa
.	16e	16gg
.	16f#	16ff#
8r	8g	16ee
.	.	16ff#
16E	8B	16gg
16F#	.	16ee
16G	4A	8cc#
16F#	.	.
16G	.	16ee
16A	.	16ff#
16B	[4e	8gg
16E	.	.
16F#	.	8b
16G	.	.
=17	=17	=17
8C#	16e]	[2a
.	16f#	.
16E	16e	.
16F#	16d	.
8G	16c#	.
.	16b	.
8C#	16a	.
.	16g	.
8D	4f#	16a]
.	.	16g
16AA	.	16f#
16BB	.	16g
8Cn	4r	16a
.	.	16g
8EE	.	16a
.	.	16b
=18	=18	=18
1DD	8r	16ccn
.	.	16b
.	16a	16cc
.	16b	16dd
.	8ccn	16ee
.	.	16dd
.	8e	16cc
.	.	16b
.	16f#	16a
.	[8.g	16g
.	.	16a
.	.	16b
.	8g]	16cc
.	.	16b
.	8f#	16cc
.	.	16dd
=19	=19	=19
8GG	4g	16b
.	.	16a
16B	.	16g
16cn	.	16a
8d	16r	16b
.	16ccn	16ccn
8Fn	16b	[8dd
.	16a	.
8E	16g#	4dd]
.	16e	.
16A	16f#	.
16B	16g#	.
8c	16a	[4cc
.	16b	.
8E	16a	.
.	16gn	.
=20	=20	=20
8D	16f#	4cc]
.	16d	.
16G	16e	.
16A	16f#	.
8B	16g	[4b
.	16a	.
8D	16g	.
.	16f#	.
16Cn	8e	8b]
16B	.	.
16A	8r	8gg
16G	.	.
16F#	4r	8a
16e	.	.
16d	.	8ff#
16cn	.	.
=21	=21	=21
16B	2r	16gg
16A	.	16dd
16G	.	16ee
16A	.	16ff#
16B	.	16gg
16A	.	16bb
16B	.	16aa
16c#	.	16gg
4d	8r	16ff#
.	.	16ee
.	16f#	16dd
.	16g	16ee
[4A	8a	16ff#
.	.	16gg
.	8cn	16ff#
.	.	16ee
=22	=22	=22
4A]	8B	16dd#
.	.	16b
.	16e	16cc#
.	16f#	16dd#
2G	8g	16ee
.	.	16ff#
.	8B	16ee
.	.	16ddn
.	8A	16cc#
.	.	16a
.	16d	16b
.	16e	16cc#
[4F#	8f#	16dd
.	.	16ee
.	8A	16dd
.	.	16cc#
=23	=23	=23
16F#]	16G	16b
16E	16f#	16a
16F#	16e	16g
16G	16d	16f#
16A	16c#	8e
16G	16b	.
16F#	16a	8cc#
16E	16g	.
16D	8f#	8dd
16C#	.	.
16D	[8a	16ff#
16E	.	16gg
16F#	4a_	8aa
16G	.	.
16F#	.	8ccn
16E	.	.
=24	=24	=24
16D#	4a]	8b
16BB	.	.
16C#	.	16ee
16D#	.	16ff#
16E	2g	8gg
16F#	.	.
16E	.	8b
16Dn	.	.
16C#	.	8a
16AA	.	.
16BB	.	16dd
16C#	.	16ee
16D	[4f#	8ff#
16E	.	.
16D	.	8a
16C#	.	.
=25	=25	=25
8BB	16f#]	16g
.	16a	16ff#
8G	16g	16ee
.	16f#	16dd
8A	16e	4cc#
.	16b	.
8AA	16a	.
.	16g	.
2DD;	2f#;	2dd;
====	====	====
*-	*-	*-
